img/interventions/thumb.svg

<svg fill="none" height="282" viewBox="0 0 537 282" width="537" xmlns="http://www.w3.org/2000/svg"><path d="m247.258 197.105c-.464-.006-.908-.193-1.237-.52s-.519-.769-.528-1.233v-29.889h-10.807c-.466-.009-.909-.198-1.238-.527s-.518-.773-.528-1.238v-10.507c.01-.465.199-.909.528-1.238s.772-.518 1.238-.527h38.234c.454.01.886.2 1.2.528.162.156.291.342.38.548s.135.428.137.653v10.507c-.002.224-.048.446-.137.653-.089.206-.218.392-.38.548-.314.328-.746.518-1.2.528h-10.808v29.961c-.003.464-.189.908-.517 1.236s-.772.514-1.236.517zm36.409 0c-.464-.003-.908-.189-1.236-.517s-.514-.772-.517-1.236v-42.161c.006-.464.192-.908.519-1.237.327-.33.77-.519 1.234-.528h13.317c.465.009.909.198 1.238.527s.518.773.527 1.238v42.161c-.009.464-.198.906-.528 1.233-.329.327-.773.514-1.237.52zm45.427.66c-6.533 0-11.736-1.501-15.611-4.503-3.874-3.002-5.94-7.377-6.196-13.125 0-1.201-.072-3.062-.072-5.668 0-2.605 0-4.587.072-5.812.037-3.421 1.068-6.759 2.966-9.606 1.891-2.734 4.53-4.865 7.601-6.136 7.223-2.782 15.221-2.782 22.444 0 3.071 1.271 5.71 3.402 7.601 6.136 1.897 2.849 2.931 6.184 2.978 9.606.084 2.402.12 4.371.12 5.812s0 3.327-.12 5.668c-.264 5.748-2.334 10.123-6.209 13.125-3.874 3.002-9.066 4.503-15.574 4.503zm0-12.728c.639.036 1.28-.062 1.879-.287.6-.225 1.146-.574 1.603-1.022.937-1.106 1.418-2.527 1.345-3.975.084-2.522.132-4.371.132-5.548s0-3.062-.132-5.416c.072-1.455-.418-2.882-1.369-3.986-.958-.836-2.186-1.297-3.458-1.297s-2.5.461-3.458 1.297c-.96 1.1-1.455 2.529-1.381 3.986 0 1.201-.06 2.979-.06 5.416 0 2.438 0 4.287.06 5.548-.073 1.448.407 2.869 1.345 3.975.459.449 1.007.798 1.608 1.023.602.226 1.244.323 1.886.286zm32.098 12.008c-.464-.003-.908-.189-1.236-.517-.329-.328-.514-.773-.517-1.237v-42.1c.006-.464.192-.908.519-1.237.327-.33.77-.519 1.234-.528h10.315c.534-.02 1.064.11 1.529.375.464.265.846.655 1.101 1.126l11.023 18.084v-17.82c.009-.465.198-.909.527-1.238s.773-.518 1.238-.527h11.804c.455.01.887.2 1.201.528.162.156.291.342.38.548.088.206.135.428.136.653v42.197c-.001.224-.048.446-.136.652-.089.206-.218.393-.38.548-.156.161-.343.29-.549.378-.206.089-.427.136-.652.139h-10.303c-.6.045-1.197-.116-1.693-.457-.385-.29-.718-.643-.985-1.044l-11.023-16.632v16.416c-.009.464-.199.906-.528 1.233s-.773.514-1.237.52zm68.134.66c-3.991.102-7.965-.541-11.72-1.897-2.82-.992-5.313-2.741-7.205-5.056-1.565-1.988-2.457-4.423-2.546-6.952 0-.188.037-.374.109-.547.073-.173.178-.33.312-.462.13-.136.287-.243.46-.315.174-.072.36-.108.548-.105h12.405c.498-.021.996.057 1.465.228.489.224.942.519 1.345.876 1.382 1.035 3.077 1.565 4.803 1.501 1.22.045 2.439-.122 3.603-.492.888-.328 1.332-.772 1.332-1.333 0-.78-.588-1.381-1.753-1.801-2.2-.591-4.445-.996-6.712-1.213-11.208-1.473-16.812-6.276-16.812-14.41-.036-2.804.85-5.542 2.522-7.793 1.8-2.389 4.227-4.23 7.013-5.319 3.297-1.319 6.824-1.964 10.375-1.898 3.71-.085 7.396.628 10.807 2.09 2.763 1.147 5.207 2.948 7.121 5.247 1.494 1.734 2.406 3.893 2.606 6.172.002.188-.034.375-.106.548-.073.174-.18.33-.315.461-.12.133-.266.24-.429.315-.163.074-.34.114-.519.117h-13.101c-.488.02-.974-.062-1.429-.24-.441-.201-.847-.473-1.201-.804-.963-.817-2.196-1.245-3.458-1.201-2.09 0-3.134.6-3.134 1.825 0 .649.516 1.201 1.537 1.633 1.847.625 3.761 1.028 5.704 1.201 3.589.37 7.112 1.226 10.471 2.546 2.357.912 4.375 2.531 5.776 4.635 1.273 2.181 1.893 4.681 1.789 7.205.046 2.955-.949 5.833-2.81 8.129-2.046 2.457-4.718 4.316-7.733 5.38-3.55 1.269-7.303 1.875-11.072 1.789z" fill="#c56866"/><path d="m101.214 197.105c-.711.042-1.4114-.19-1.9569-.649-.4577-.402-.798-.921-.9847-1.501l-12.2723-41.632v-.456c-.0023-.188.0339-.375.1061-.548.0723-.173.1792-.33.3142-.461.1315-.138.2899-.248.4655-.322s.3645-.112.5552-.11h12.0682c.7127-.038 1.4127.198 1.9577.66.467.419.808.96.984 1.561l6.197 24.269 6.196-24.269c.186-.58.527-1.099.984-1.501.545-.46 1.245-.697 1.958-.66h12.14c.379.006.741.16 1.008.429.267.27.418.633.421 1.012v.456l-12.332 41.572c-.178.582-.515 1.102-.973 1.501-.548.455-1.247.686-1.957.649zm39.015 0c-.224-.002-.446-.049-.652-.138-.206-.088-.393-.217-.549-.379-.162-.155-.291-.341-.379-.548-.089-.206-.136-.428-.137-.652v-42.197c.001-.225.048-.446.137-.653.088-.206.217-.392.379-.548.156-.163.342-.293.548-.384s.428-.14.653-.144h33.479c.465.009.909.198 1.238.527s.518.773.527 1.238v9.198c-.01.455-.2.886-.528 1.201-.156.162-.342.291-.549.38-.206.088-.428.135-.652.136h-19.61v4.107h18.145c.225.005.447.054.653.144.206.091.392.222.548.385.161.155.291.341.379.548.089.206.135.428.137.652v8.49c-.003.464-.189.908-.517 1.236s-.772.514-1.236.517h-18.109v4.167h20.102c.225.002.447.048.653.137s.392.218.548.38c.161.155.29.342.379.548.088.206.135.428.137.652v9.211c-.003.464-.189.908-.517 1.236s-.772.514-1.236.517zm46.075 0c-.464-.006-.907-.193-1.237-.52-.329-.327-.519-.769-.528-1.233v-42.161c.009-.465.198-.909.527-1.238s.773-.518 1.238-.527h10.315c.543-.028 1.082.098 1.556.364s.863.66 1.122 1.137l11.024 18.084v-17.82c.001-.225.048-.446.136-.653.089-.206.218-.392.38-.548.315-.328.746-.518 1.201-.528h11.804c.225.002.448.05.654.141.207.091.393.223.547.387.163.155.294.341.385.547s.139.429.143.654v42.161c-.004.225-.052.447-.143.653s-.222.392-.385.547c-.155.163-.341.293-.548.382-.206.089-.428.135-.653.135h-10.255c-.604.043-1.204-.118-1.705-.457-.379-.293-.707-.646-.973-1.044l-11.035-16.596v16.38c-.004.464-.189.908-.517 1.236-.329.328-.773.514-1.237.517z" fill="#b299b6"/><path d="m177.827 129.631c-.452-.011-.882-.196-1.201-.516-.161-.157-.289-.343-.378-.549s-.136-.428-.139-.652v-29.8885h-10.915c-.224-.0015-.446-.048-.653-.1367-.206-.0886-.392-.2177-.548-.3796-.163-.1554-.293-.3415-.384-.5476s-.14-.4281-.144-.6532v-10.5432c.01-.4544.2-.8862.528-1.2008.152-.1706.336-.3087.543-.4057.206-.097.43-.151.658-.1587h38.27c.224.0029.446.0499.652.1385s.392.217.549.3779c.161.1563.289.3429.378.5489.088.2061.135.4276.138.6519v10.5071c-.003.4661-.19.912-.521 1.2404-.331.3285-.778.5128-1.244.5128h-10.807v29.9365c-.003.224-.05.446-.139.652-.088.206-.217.392-.378.549-.318.321-.748.506-1.201.516zm36.408 0c-.466-.006-.911-.194-1.241-.524s-.518-.775-.524-1.241v-42.1008c.01-.4544.2-.8862.529-1.2008.155-.1619.341-.291.548-.3797.206-.0887.428-.1351.652-.1367h33.479c.225.0016.447.048.653.1367s.392.2178.548.3797c.328.3146.518.7464.528 1.2008v9.1982c-.009.4653-.198.909-.527 1.238-.329.3291-.773.518-1.238.5272h-19.573v4.0824h18.132c.455.011.886.201 1.201.529.163.154.293.341.382.547.088.207.134.429.134.654v8.477c-.001.225-.048.447-.136.653-.089.206-.218.393-.38.548-.315.328-.746.518-1.201.529h-18.132v4.106h20.089c.455.011.887.201 1.201.529.162.155.291.342.38.548s.135.428.137.652v9.199c-.003.224-.05.446-.139.652s-.217.392-.378.549c-.319.32-.749.505-1.201.516zm46.076 0c-.467-.006-.912-.194-1.242-.524-.329-.33-.517-.775-.523-1.241v-42.1008c.01-.4544.2-.8862.528-1.2008.155-.163.341-.2928.547-.3816.207-.0888.429-.1346.654-.1348h19.309c6.268 0 11.163 1.405 14.686 4.2149 1.739 1.3855 3.124 3.1637 4.043 5.1885.918 2.0247 1.343 4.2384 1.24 6.4594.055 2.6142-.596 5.1942-1.885 7.4692-1.272 2.159-3.043 3.983-5.163 5.319l8.033 14.879c.12.217.186.46.192.708 0 .382-.152.749-.422 1.019s-.637.422-1.019.422h-13.341c-.662.038-1.316-.157-1.849-.552-.414-.313-.741-.726-.949-1.201l-5.62-12.465h-2.665v12.405c-.019.458-.212.891-.541 1.21-.328.32-.766.501-1.225.507zm19.309-26.622c.418.025.837-.048 1.222-.212.386-.165.728-.417.999-.737.542-.68.819-1.533.781-2.4014.017-.8971-.243-1.7778-.745-2.5217-.255-.3546-.596-.6386-.991-.8255-.394-.1869-.83-.2706-1.266-.2432h-4.803v6.9168zm29.24 13.437c-.225-.001-.447-.048-.653-.137-.206-.088-.393-.217-.548-.379-.163-.156-.294-.342-.384-.548-.091-.206-.14-.428-.144-.653v-9.258c.009-.466.198-.909.527-1.238s.772-.518 1.238-.528h21.17c.465.01.909.199 1.238.528s.518.772.527 1.238v9.27c-.004.225-.053.447-.144.653-.09.206-.221.392-.384.548-.156.162-.342.291-.548.379-.206.089-.428.136-.653.137z" fill="#36508a"/><path d="m90.3111 129.63c-.4662-.006-.9116-.194-1.2413-.524-.3297-.329-.5177-.775-.5239-1.241v-42.1006c.0102-.4544.2002-.8863.5284-1.2008.1555-.1619.3419-.291.5481-.3797.2063-.0887.4282-.1352.6527-.1367h13.3529c.225.0015.447.048.653.1367s.392.2178.548.3797c.161.1563.289.3429.378.5489.088.2061.135.4276.138.6519v42.1486c-.003.224-.05.446-.138.652-.089.206-.217.393-.378.549-.317.322-.748.508-1.201.516zm26.5619 0c-.466-.006-.911-.194-1.241-.524-.33-.329-.518-.775-.524-1.241v-42.1006c.01-.4544.2-.8863.528-1.2008.156-.1619.342-.291.548-.3797.207-.0887.429-.1352.653-.1367h10.315c.541-.0296 1.08.0959 1.552.3619.472.2659.859.6611 1.114 1.1391l11.072 18.0248v-17.8086c.002-.2243.049-.4458.138-.6519.089-.206.217-.3926.378-.5489.156-.1614.342-.2901.548-.3788.207-.0886.428-.1354.653-.1376h11.816c.224.0015.446.048.652.1367.207.0887.393.2178.549.3797.328.3145.518.7464.528 1.2008v42.1486c-.017.446-.201.869-.514 1.187-.313.317-.734.507-1.179.53h-10.315c-.599.036-1.194-.124-1.693-.456-.382-.29-.711-.644-.973-1.045l-11.036-16.595v16.379c-.002.224-.05.446-.138.652-.089.206-.217.393-.378.549-.318.321-.749.507-1.201.516z" fill="#5ca0b3"/></svg>

<svg width="537" height="282" viewBox="0 0 537 282" fill="none" xmlns="http://www.w3.org/2000/svg">
<path d="M247.258 197.105C246.794 197.099 246.35 196.912 246.021 196.585C245.692 196.258 245.502 195.816 245.493 195.352V165.463H234.686C234.22 165.454 233.777 165.265 233.448 164.936C233.119 164.607 232.93 164.163 232.92 163.698V153.191C232.93 152.726 233.119 152.282 233.448 151.953C233.777 151.624 234.22 151.435 234.686 151.426H272.92C273.374 151.436 273.806 151.626 274.12 151.954C274.282 152.11 274.411 152.296 274.5 152.502C274.589 152.708 274.635 152.93 274.637 153.155V163.662C274.635 163.886 274.589 164.108 274.5 164.315C274.411 164.521 274.282 164.707 274.12 164.863C273.806 165.191 273.374 165.381 272.92 165.391H262.112V195.352C262.109 195.816 261.923 196.26 261.595 196.588C261.267 196.916 260.823 197.102 260.359 197.105H247.258ZM283.667 197.105C283.203 197.102 282.759 196.916 282.431 196.588C282.103 196.26 281.917 195.816 281.914 195.352V153.191C281.92 152.727 282.106 152.283 282.433 151.954C282.76 151.624 283.203 151.435 283.667 151.426H296.984C297.449 151.435 297.893 151.624 298.222 151.953C298.551 152.282 298.74 152.726 298.749 153.191V195.352C298.74 195.816 298.551 196.258 298.221 196.585C297.892 196.912 297.448 197.099 296.984 197.105H283.667ZM329.094 197.765C322.561 197.765 317.358 196.264 313.483 193.262C309.609 190.26 307.543 185.885 307.287 180.137C307.287 178.936 307.215 177.075 307.215 174.469C307.215 171.864 307.215 169.882 307.287 168.657C307.324 165.236 308.355 161.898 310.253 159.051C312.144 156.317 314.783 154.186 317.854 152.915C325.077 150.133 333.075 150.133 340.298 152.915C343.369 154.186 346.008 156.317 347.899 159.051C349.796 161.9 350.83 165.235 350.877 168.657C350.961 171.059 350.997 173.028 350.997 174.469C350.997 175.91 350.997 177.796 350.877 180.137C350.613 185.885 348.543 190.26 344.668 193.262C340.794 196.264 335.602 197.765 329.094 197.765ZM329.094 185.037C329.733 185.073 330.374 184.975 330.973 184.75C331.573 184.525 332.119 184.176 332.576 183.728C333.513 182.622 333.994 181.201 333.921 179.753C334.005 177.231 334.053 175.382 334.053 174.205C334.053 173.028 334.053 171.143 333.921 168.789C333.993 167.334 333.503 165.907 332.552 164.803C331.594 163.967 330.366 163.506 329.094 163.506C327.822 163.506 326.594 163.967 325.636 164.803C324.676 165.903 324.181 167.332 324.255 168.789C324.255 169.99 324.195 171.768 324.195 174.205C324.195 176.643 324.195 178.492 324.255 179.753C324.182 181.201 324.662 182.622 325.6 183.728C326.059 184.177 326.607 184.526 327.208 184.751C327.81 184.977 328.452 185.074 329.094 185.037ZM361.192 197.045C360.728 197.042 360.284 196.856 359.956 196.528C359.627 196.2 359.442 195.755 359.439 195.291V153.191C359.445 152.727 359.631 152.283 359.958 151.954C360.285 151.624 360.728 151.435 361.192 151.426H371.507C372.041 151.406 372.571 151.536 373.036 151.801C373.5 152.066 373.882 152.456 374.137 152.927L385.16 171.011V153.191C385.169 152.726 385.358 152.282 385.687 151.953C386.016 151.624 386.46 151.435 386.925 151.426H398.729C399.184 151.436 399.616 151.626 399.93 151.954C400.092 152.11 400.221 152.296 400.31 152.502C400.398 152.708 400.445 152.93 400.446 153.155V195.352C400.445 195.576 400.398 195.798 400.31 196.004C400.221 196.21 400.092 196.397 399.93 196.552C399.774 196.713 399.587 196.842 399.381 196.93C399.175 197.019 398.954 197.066 398.729 197.069H388.426C387.826 197.114 387.229 196.953 386.733 196.612C386.348 196.322 386.015 195.969 385.748 195.568L374.725 178.936V195.352C374.716 195.816 374.526 196.258 374.197 196.585C373.868 196.912 373.424 197.099 372.96 197.105L361.192 197.045ZM429.326 197.705C425.335 197.807 421.361 197.164 417.606 195.808C414.786 194.816 412.293 193.067 410.401 190.752C408.836 188.764 407.944 186.329 407.855 183.8C407.855 183.612 407.892 183.426 407.964 183.253C408.037 183.08 408.142 182.923 408.276 182.791C408.406 182.655 408.563 182.548 408.736 182.476C408.91 182.404 409.096 182.368 409.284 182.371H421.689C422.187 182.35 422.685 182.428 423.154 182.599C423.643 182.823 424.096 183.118 424.499 183.475C425.881 184.51 427.576 185.04 429.302 184.976C430.522 185.021 431.741 184.854 432.905 184.484C433.793 184.156 434.237 183.712 434.237 183.151C434.237 182.371 433.649 181.77 432.484 181.35C430.284 180.759 428.039 180.354 425.772 180.137C414.564 178.664 408.96 173.861 408.96 165.727C408.924 162.923 409.81 160.185 411.482 157.934C413.282 155.545 415.709 153.704 418.495 152.615C421.792 151.296 425.319 150.651 428.87 150.717C432.58 150.632 436.266 151.345 439.677 152.807C442.44 153.954 444.884 155.755 446.798 158.054C448.292 159.788 449.204 161.947 449.404 164.226C449.406 164.414 449.37 164.601 449.298 164.774C449.225 164.948 449.118 165.104 448.983 165.235C448.863 165.368 448.717 165.475 448.554 165.55C448.391 165.624 448.214 165.664 448.035 165.667H434.934C434.446 165.687 433.96 165.605 433.505 165.427C433.064 165.226 432.658 164.954 432.304 164.623C431.341 163.806 430.108 163.378 428.846 163.422C426.756 163.422 425.712 164.022 425.712 165.247C425.712 165.896 426.228 166.448 427.249 166.88C429.096 167.505 431.01 167.908 432.953 168.081C436.542 168.451 440.065 169.307 443.424 170.627C445.781 171.539 447.799 173.158 449.2 175.262C450.473 177.443 451.093 179.943 450.989 182.467C451.035 185.422 450.04 188.3 448.179 190.596C446.133 193.053 443.461 194.912 440.446 195.976C436.896 197.245 433.143 197.851 429.374 197.765L429.326 197.705Z" fill="#C56866"/>
<path d="M101.214 197.105C100.503 197.147 99.8026 196.915 99.2571 196.456C98.7994 196.054 98.4591 195.535 98.2724 194.955L86.0001 153.323V152.867C85.9978 152.679 86.034 152.492 86.1062 152.319C86.1785 152.146 86.2854 151.989 86.4204 151.858C86.5519 151.72 86.7103 151.61 86.8859 151.536C87.0615 151.462 87.2504 151.424 87.4411 151.426H99.5093C100.222 151.388 100.922 151.624 101.467 152.086C101.934 152.505 102.275 153.046 102.451 153.647L108.648 177.916L114.844 153.647C115.03 153.067 115.371 152.548 115.828 152.146C116.373 151.686 117.073 151.449 117.786 151.486H129.926C130.305 151.492 130.667 151.646 130.934 151.915C131.201 152.185 131.352 152.548 131.355 152.927V153.383L119.023 194.955C118.845 195.537 118.508 196.057 118.05 196.456C117.502 196.911 116.803 197.142 116.093 197.105H101.214ZM140.229 197.105C140.005 197.103 139.783 197.056 139.577 196.967C139.371 196.879 139.184 196.75 139.028 196.588C138.866 196.433 138.737 196.247 138.649 196.04C138.56 195.834 138.513 195.612 138.512 195.388V153.191C138.513 152.966 138.56 152.745 138.649 152.538C138.737 152.332 138.866 152.146 139.028 151.99C139.184 151.827 139.37 151.697 139.576 151.606C139.782 151.515 140.004 151.466 140.229 151.462H173.708C174.173 151.471 174.617 151.66 174.946 151.989C175.275 152.318 175.464 152.762 175.473 153.227V162.425C175.463 162.88 175.273 163.311 174.945 163.626C174.789 163.788 174.603 163.917 174.396 164.006C174.19 164.094 173.968 164.141 173.744 164.142H154.134V168.249H172.279C172.504 168.254 172.726 168.303 172.932 168.393C173.138 168.484 173.324 168.615 173.48 168.778C173.641 168.933 173.771 169.119 173.859 169.326C173.948 169.532 173.994 169.754 173.996 169.978V178.468C173.993 178.932 173.807 179.376 173.479 179.704C173.151 180.032 172.707 180.218 172.243 180.221H154.134V184.388H174.236C174.461 184.39 174.683 184.436 174.889 184.525C175.095 184.614 175.281 184.743 175.437 184.905C175.598 185.06 175.727 185.247 175.816 185.453C175.904 185.659 175.951 185.881 175.953 186.105V195.316C175.95 195.78 175.764 196.224 175.436 196.552C175.108 196.88 174.664 197.066 174.2 197.069L140.229 197.105ZM186.304 197.105C185.84 197.099 185.397 196.912 185.067 196.585C184.738 196.258 184.548 195.816 184.539 195.352V153.191C184.548 152.726 184.737 152.282 185.066 151.953C185.395 151.624 185.839 151.435 186.304 151.426H196.619C197.162 151.398 197.701 151.524 198.175 151.79C198.649 152.056 199.038 152.45 199.297 152.927L210.321 171.011V153.191C210.322 152.966 210.369 152.745 210.457 152.538C210.546 152.332 210.675 152.146 210.837 151.99C211.152 151.662 211.583 151.472 212.038 151.462H223.842C224.067 151.464 224.29 151.512 224.496 151.603C224.703 151.694 224.889 151.826 225.043 151.99C225.206 152.145 225.337 152.331 225.428 152.537C225.519 152.743 225.567 152.966 225.571 153.191V195.352C225.567 195.577 225.519 195.799 225.428 196.005C225.337 196.211 225.206 196.397 225.043 196.552C224.888 196.715 224.702 196.845 224.495 196.934C224.289 197.023 224.067 197.069 223.842 197.069H213.587C212.983 197.112 212.383 196.951 211.882 196.612C211.503 196.319 211.175 195.966 210.909 195.568L199.874 178.972V195.352C199.87 195.816 199.685 196.26 199.357 196.588C199.028 196.916 198.584 197.102 198.12 197.105H186.304Z" fill="#B299B6"/>
<path d="M177.827 129.631C177.375 129.62 176.945 129.435 176.626 129.115C176.465 128.958 176.337 128.772 176.248 128.566C176.159 128.36 176.112 128.138 176.109 127.914V98.0255H165.194C164.97 98.024 164.748 97.9775 164.541 97.8888C164.335 97.8002 164.149 97.6711 163.993 97.5092C163.83 97.3538 163.7 97.1677 163.609 96.9616C163.518 96.7555 163.469 96.5335 163.465 96.3084V85.7652C163.475 85.3108 163.665 84.879 163.993 84.5644C164.145 84.3938 164.329 84.2557 164.536 84.1587C164.742 84.0617 164.966 84.0077 165.194 84H203.464C203.688 84.0029 203.91 84.0499 204.116 84.1385C204.322 84.2271 204.508 84.3555 204.665 84.5164C204.826 84.6727 204.954 84.8593 205.043 85.0653C205.131 85.2714 205.178 85.4929 205.181 85.7172V96.2243C205.178 96.6904 204.991 97.1363 204.66 97.4647C204.329 97.7932 203.882 97.9775 203.416 97.9775H192.609V127.914C192.606 128.138 192.559 128.36 192.47 128.566C192.382 128.772 192.253 128.958 192.092 129.115C191.774 129.436 191.344 129.621 190.891 129.631H177.827ZM214.235 129.631C213.769 129.625 213.324 129.437 212.994 129.107C212.664 128.777 212.476 128.332 212.47 127.866V85.7652C212.48 85.3108 212.67 84.879 212.999 84.5644C213.154 84.4025 213.34 84.2734 213.547 84.1847C213.753 84.096 213.975 84.0496 214.199 84.048H247.678C247.903 84.0496 248.125 84.096 248.331 84.1847C248.537 84.2734 248.723 84.4025 248.879 84.5644C249.207 84.879 249.397 85.3108 249.407 85.7652V94.9634C249.398 95.4287 249.209 95.8724 248.88 96.2014C248.551 96.5305 248.107 96.7194 247.642 96.7286H228.069V100.811H246.201C246.656 100.822 247.087 101.012 247.402 101.34C247.565 101.494 247.695 101.681 247.784 101.887C247.872 102.094 247.918 102.316 247.918 102.541V111.018C247.917 111.243 247.87 111.465 247.782 111.671C247.693 111.877 247.564 112.064 247.402 112.219C247.087 112.547 246.656 112.737 246.201 112.748H228.069V116.854H248.158C248.613 116.865 249.045 117.055 249.359 117.383C249.521 117.538 249.65 117.725 249.739 117.931C249.828 118.137 249.874 118.359 249.876 118.583V127.782C249.873 128.006 249.826 128.228 249.737 128.434C249.648 128.64 249.52 128.826 249.359 128.983C249.04 129.303 248.61 129.488 248.158 129.499L214.235 129.631ZM260.311 129.631C259.844 129.625 259.399 129.437 259.069 129.107C258.74 128.777 258.552 128.332 258.546 127.866V85.7652C258.556 85.3108 258.746 84.879 259.074 84.5644C259.229 84.4014 259.415 84.2716 259.621 84.1828C259.828 84.094 260.05 84.0482 260.275 84.048H279.584C285.852 84.048 290.747 85.453 294.27 88.2629C296.009 89.6484 297.394 91.4266 298.313 93.4514C299.231 95.4761 299.656 97.6898 299.553 99.9108C299.608 102.525 298.957 105.105 297.668 107.38C296.396 109.539 294.625 111.363 292.505 112.699L300.538 127.578C300.658 127.795 300.724 128.038 300.73 128.286C300.73 128.668 300.578 129.035 300.308 129.305C300.038 129.575 299.671 129.727 299.289 129.727H285.948C285.286 129.765 284.632 129.57 284.099 129.175C283.685 128.862 283.358 128.449 283.15 127.974L277.53 115.509H274.865V127.914C274.846 128.372 274.653 128.805 274.324 129.124C273.996 129.444 273.558 129.625 273.099 129.631H260.311ZM279.62 103.009C280.038 103.034 280.457 102.961 280.842 102.797C281.228 102.632 281.57 102.38 281.841 102.06C282.383 101.38 282.66 100.527 282.622 99.6586C282.639 98.7615 282.379 97.8808 281.877 97.1369C281.622 96.7823 281.281 96.4983 280.886 96.3114C280.492 96.1245 280.056 96.0408 279.62 96.0682H274.817V102.985L279.62 103.009ZM308.86 116.446C308.635 116.445 308.413 116.398 308.207 116.309C308.001 116.221 307.814 116.092 307.659 115.93C307.496 115.774 307.365 115.588 307.275 115.382C307.184 115.176 307.135 114.954 307.131 114.729V105.471C307.14 105.005 307.329 104.562 307.658 104.233C307.987 103.904 308.43 103.715 308.896 103.705H330.066C330.531 103.715 330.975 103.904 331.304 104.233C331.633 104.562 331.822 105.005 331.831 105.471V114.741C331.827 114.966 331.778 115.188 331.687 115.394C331.597 115.6 331.466 115.786 331.303 115.942C331.147 116.104 330.961 116.233 330.755 116.321C330.549 116.41 330.327 116.457 330.102 116.458L308.86 116.446Z" fill="#36508A"/>
<path d="M90.3111 129.63C89.8449 129.624 89.3995 129.436 89.0698 129.106C88.7401 128.777 88.5521 128.331 88.5459 127.865V85.7644C88.5561 85.31 88.7461 84.8781 89.0743 84.5636C89.2298 84.4017 89.4162 84.2726 89.6224 84.1839C89.8287 84.0952 90.0506 84.0487 90.2751 84.0472H103.628C103.853 84.0487 104.075 84.0952 104.281 84.1839C104.487 84.2726 104.673 84.4017 104.829 84.5636C104.99 84.7199 105.118 84.9065 105.207 85.1125C105.295 85.3186 105.342 85.5401 105.345 85.7644V127.913C105.342 128.137 105.295 128.359 105.207 128.565C105.118 128.771 104.99 128.958 104.829 129.114C104.512 129.436 104.081 129.622 103.628 129.63H90.3111ZM116.873 129.63C116.407 129.624 115.962 129.436 115.632 129.106C115.302 128.777 115.114 128.331 115.108 127.865V85.7644C115.118 85.31 115.308 84.8781 115.636 84.5636C115.792 84.4017 115.978 84.2726 116.184 84.1839C116.391 84.0952 116.613 84.0487 116.837 84.0472H127.152C127.693 84.0176 128.232 84.1431 128.704 84.4091C129.176 84.675 129.563 85.0702 129.818 85.5482L140.89 103.573V85.7644C140.892 85.5401 140.939 85.3186 141.028 85.1125C141.117 84.9065 141.245 84.7199 141.406 84.5636C141.562 84.4022 141.748 84.2735 141.954 84.1848C142.161 84.0962 142.382 84.0494 142.607 84.0472H154.423C154.647 84.0487 154.869 84.0952 155.075 84.1839C155.282 84.2726 155.468 84.4017 155.624 84.5636C155.952 84.8781 156.142 85.31 156.152 85.7644V127.913C156.135 128.359 155.951 128.782 155.638 129.1C155.325 129.417 154.904 129.607 154.459 129.63H144.144C143.545 129.666 142.95 129.506 142.451 129.174C142.069 128.884 141.74 128.53 141.478 128.129L130.442 111.534V127.913C130.44 128.137 130.392 128.359 130.304 128.565C130.215 128.771 130.087 128.958 129.926 129.114C129.608 129.435 129.177 129.621 128.725 129.63H116.873Z" fill="#5CA0B3"/>
</svg>
